X:1
T:Title
%%score { 1 | 2 }
L:1/8
M:4/4
K:D
V:1 treble nm="Grand Piano"
V:2 bass 
V:1
 z4 z2[Q:1/4=106] D>E | F2 [FA]2 [FA]2 [FA]2 | B2 d4 cB | [FA]2 F2 F2 A2 |[M:3/4] E6 | %5
[M:1/4] [CF]>[CE] |[M:4/4] D2 D2 F2 [FA]2 | B2 d4 cB | A2 F2 [CE]2 [CE]2 |[M:3/4] D6 | %10
[M:1/4] [FA]>[FA] |[M:4/4] [Fd]4 [Ac]2 [GB]2 | [FA]6 [DA]>[DA] | [^DB]2 [DA]2 [EG]2 [DF]2 | %14
[M:3/4] [EG]6 |[M:1/4] [CA]>[CG] |[M:4/4] [DF]2 [DF]2 [EG]2 [FA]2 | B2 d4 cB | A2 F2 [CE]2 [CE]2 | %19
[M:3/4] D6 |] %20
V:2
 z4 z2 [D,F,]>[D,G,D] | [D,A,D]2 [D,D]2 [D,D]2 [D,D]2 | [G,DG]2 [G,G]4 [G,DG][G,DG] | %3
 [D,D]2 [D,A,D]2 [D,A,D]2 [F,A,D]2 |[M:3/4] [A,C]6 |[M:1/4] [A,,A,]>[A,,G,] | %6
[M:4/4] [D,F,]2 [D,F,A,]2 [D,A,D]2 [D,D]2 | [G,DG]2 [G,B,G]4 [G,DG][G,DG] | %8
 [A,DF]2[K:bass] [A,D]2 [A,,A,]2 [A,,G,]2 |[M:3/4] [D,F,]6 |[M:1/4] [D,D]>[D,D] | %11
[M:4/4] [D,A,]4 [D,A,]2 [D,D]2 | [D,D]6 [D,F,]>[D,F,] | [B,,F,]2 [B,,F,]2 [B,,B,]2 [B,,B,]2 | %14
[M:3/4] [E,B,]6 |[M:1/4] [A,,A,]>[A,,A,] |[M:4/4] [D,A,]2 [D,A,]2 [D,A,]2 [D,D]2 | %17
 [G,DG]2 [G,B,G]4 [G,DG][G,DG] | [A,DF]2[K:bass] [A,D]2 [A,,A,]2 [A,,G,]2 |[M:3/4] [D,F,]6 |] %20

